X:2324
T:Twas my Father and my Mother 
C:Mrs Bridson, Glion Meay 
C:Traditional
O:Isle of Man
S:Collected by Mona Douglas 
B:Kiaull Vannin #324 
M:6/8 
Q:140 
K:G 
GA|B2B BAG|d3 e2E|G2D G2D|G3-G2 d|e2e gfe|d3 g2e|d2B BAG|A3 z Bc| 
d2d def|g2f g2e|d2B BAG|A3 z GA|BBB BAG|d3 d2E|G2 D G2D|G3-G2|| 

